X:140
T:Nick Swinford
R:waltz  
C: 2009, 2010 L.E. McCullough 
M:3/4
L:1/8
K:D
de|: f3 a fd | e4 dc | d2 G2 BA | B2 A2 AG |
F3D FA | B3A Bd | e3f dB | A3A de|
f3 a fd | e4 dc | d2 G2 BA | B2 A2 AG |
FA d2 f2 | ed c2 e2 | d3e dc |1 d4 de:|2 d4 dc |]
|: B3G BA | B2 A2 FD | B3A dF | A4 DE |
F2 A3d | f2 g3f | e3d cB | cB AG FA|
D2 F3A | FE D2 FA | B2 d2 BA | B4 BA |
FA d2 f2 | ed c2 e2 | d3e dc |1 d4 dc :|2 d4 de |]
<end>
<start>
